src/liquid/components/ld-bg-cells/assets/hexagon-cell.svg

<svg viewBox="0 0 8000 8000" fill="none"
  xmlns="http://www.w3.org/2000/svg">
  <path fill-rule="evenodd" clip-rule="evenodd" d="M8000 0H0V8000H8000V0ZM4380.02 3788.49C4367.35 3788.49 4362.18 3797.47 4368.49 3808.44L4405.7 3872.95C4412.07 3883.92 4412.07 3901.87 4405.7 3912.84L4358.14 3995.25C4351.78 4006.22 4336.27 4015.2 4323.6 4015.2H4228.48C4215.81 4015.2 4200.24 4006.22 4193.93 3995.25L4146.37 3912.84C4140.01 3901.87 4140.01 3883.92 4146.37 3872.95L4193.93 3790.54C4200.3 3779.57 4215.81 3770.59 4228.48 3770.59L4417.75 3770.31C4430.42 3770.31 4435.59 3761.33 4429.28 3750.36L4358.77 3627.94C4352.41 3616.97 4352.41 3599.01 4358.77 3588.04L4439.8 3447.61C4446.1 3436.58 4461.67 3427.6 4474.34 3427.6H4636.45C4649.12 3427.6 4664.69 3436.58 4671 3447.55L4752.03 3587.98C4758.39 3598.95 4758.39 3616.91 4752.03 3627.88L4671 3768.32C4664.69 3779.28 4649.12 3788.26 4636.45 3788.26L4380.02 3788.49ZM4332.05 4496.36L4348.02 4524.06C4350.18 4527.76 4350.18 4533.78 4347.68 4537.59L4331.71 4565.29C4329.61 4568.99 4324.38 4572 4320.12 4572H4288.12C4283.86 4572 4278.63 4568.99 4276.53 4565.29L4244.65 4510.18C4242.55 4506.49 4239.08 4506.49 4236.92 4510.18L4213.17 4551.3C4211.07 4555 4205.84 4558.01 4201.58 4558.01H4197.82H4150.49H4147.08C4142.82 4558.01 4137.59 4555 4135.48 4551.3L4108.26 4504.1C4106.16 4500.4 4106.16 4494.37 4108.26 4490.68L4113.89 4480.9C4113.97 4480.7 4114.07 4480.51 4114.17 4480.33C4114.21 4480.25 4114.25 4480.17 4114.29 4480.1L4156.68 4406C4159.81 4400.54 4157.25 4396.05 4150.94 4396.05L4080.7 4395.99C4074.45 4395.99 4066.67 4391.5 4063.54 4386.04L4058.65 4377.51C4058.54 4377.28 4058.43 4377.11 4058.31 4376.94L4056.04 4372.9L4016.77 4304.37L3999.15 4275.03C3995.97 4269.57 3991.2 4269.68 3988.07 4275.14V4275.2L3967.39 4311.08C3965.23 4314.78 3960 4317.85 3955.68 4317.85H3900.73C3896.47 4317.85 3891.18 4314.78 3889.02 4311.08L3845.49 4235.79C3843.39 4232.09 3839.87 4232.09 3837.71 4235.79L3825.09 4257.68C3824.98 4257.91 3824.86 4258.08 3824.75 4258.25L3823.78 4259.9C3822.36 4262.4 3818.78 4264.45 3815.89 4264.45H3813.78H3813.38H3797.53L3757.13 4264.51C3754.23 4264.51 3753.03 4266.55 3754.51 4269.06L3763.04 4283.84C3764.51 4286.34 3764.51 4290.5 3763.04 4293L3752.12 4311.88C3750.7 4314.38 3747.12 4316.43 3744.23 4316.43L3718.03 4316.37H3700.52C3697.57 4316.37 3696.38 4318.48 3697.85 4320.98L3702.85 4329.68L3711.49 4344.69L3714.05 4349.13C3715.53 4351.63 3715.53 4355.78 3714.05 4358.28L3695.41 4390.59C3693.93 4393.15 3690.35 4395.19 3687.45 4395.19H3684.56H3658.59H3650.23C3647.33 4395.19 3643.75 4393.09 3642.28 4390.59L3638.24 4383.59C3638.21 4383.48 3638.15 4383.4 3638.1 4383.32L3638.09 4383.32C3638.06 4383.27 3638.03 4383.23 3638.01 4383.19L3608.75 4332.92C3606.59 4329.17 3603.07 4329.17 3600.91 4332.92L3576.87 4374.55C3574.71 4378.25 3569.42 4381.32 3565.1 4381.32H3509.98C3505.66 4381.32 3500.38 4378.3 3498.22 4374.55L3489.81 4359.99L3449.06 4289.87C3445.88 4284.35 3441.56 4284.81 3438.38 4290.27L3432.01 4300.96L3403.03 4351.18C3399.85 4356.69 3392.12 4361.18 3385.76 4361.18L3315.12 4361.24C3308.81 4361.18 3306.2 4365.68 3309.38 4371.19L3334.5 4415.27L3374.22 4483.97C3376.32 4487.66 3379.85 4487.66 3382.01 4483.97L3394.62 4462.07C3396.72 4458.37 3402.01 4455.3 3406.33 4455.3H3438.61C3442.87 4455.3 3448.15 4458.37 3450.31 4462.07L3466.45 4490.05C3468.61 4493.75 3468.61 4499.89 3466.45 4503.59L3450.31 4531.57C3448.15 4535.26 3442.92 4538.33 3438.61 4538.33H3406.33C3402.07 4538.33 3396.78 4535.26 3394.62 4531.57L3362.46 4476C3360.35 4472.31 3356.83 4472.31 3354.67 4476L3330.69 4517.52C3328.53 4521.22 3323.3 4524.29 3318.98 4524.29H3264.03C3259.77 4524.29 3254.48 4521.27 3252.32 4517.52L3224.82 4469.86C3222.66 4466.17 3222.66 4460.02 3224.82 4456.33L3252.32 4408.67C3254.48 4404.97 3259.71 4401.9 3264.03 4401.9H3305.63C3311.99 4401.9 3314.15 4397.52 3310.97 4392.06L3282.95 4343.33L3246.41 4280.88C3243.23 4275.42 3243.23 4266.44 3246.41 4260.98L3286.88 4190.86C3290.06 4185.4 3297.84 4180.91 3304.15 4180.91H3385.02C3391.32 4180.91 3399.05 4185.4 3402.24 4190.86L3466.34 4301.7C3469.52 4307.16 3474.29 4306.99 3477.48 4301.53V4301.47L3498.22 4265.53C3500.38 4261.83 3505.66 4258.76 3509.98 4258.76H3565.1C3569.42 4258.76 3574.71 4261.78 3576.87 4265.53L3620.51 4341.05C3622.67 4344.81 3626.19 4344.81 3628.35 4341.05L3641.03 4319.1C3641.05 4319.07 3641.08 4319.03 3641.11 4318.99C3641.14 4318.94 3641.17 4318.9 3641.2 4318.87L3642.33 4316.94C3643.81 4314.38 3647.39 4312.33 3650.29 4312.33H3657.17H3657.39H3666.66L3709.22 4312.28C3712.17 4312.28 3713.37 4310.17 3711.89 4307.67L3703.31 4292.83C3701.83 4290.32 3701.83 4286.17 3703.31 4283.67L3714.22 4264.73C3715.7 4262.17 3719.28 4260.13 3722.18 4260.13L3744 4260.35L3765.82 4260.3C3768.78 4260.3 3769.8 4258.14 3768.32 4255.63L3752.29 4227.65C3750.82 4225.15 3750.82 4221 3752.29 4218.5L3770.88 4186.31C3772.3 4183.81 3775.88 4181.76 3778.78 4181.76H3815.94C3818.84 4181.76 3822.36 4183.81 3823.84 4186.31L3827.65 4192.96L3857.26 4243.81C3859.36 4247.5 3862.88 4247.5 3865.04 4243.81L3889.02 4202.29C3891.18 4198.59 3896.41 4195.52 3900.73 4195.52H3955.68C3959.94 4195.52 3965.23 4198.59 3967.39 4202.29L3993.42 4247.39L4016.43 4286.74C4019.61 4292.2 4024.78 4292.2 4027.91 4286.74L4069.05 4216.56L4094.63 4172.04C4099.23 4164.02 4095.48 4157.48 4086.22 4157.48L3983.13 4157.36C3973.87 4157.36 3962.5 4150.82 3957.9 4142.8L3898.74 4040.27C3894.14 4032.25 3894.14 4019.11 3898.74 4011.09L3957.9 3908.56C3962.56 3900.54 3973.87 3894 3983.13 3894H4101.44C4110.71 3894 4122.07 3900.54 4126.68 3908.56L4185.78 4011.15C4190.38 4019.17 4190.38 4032.31 4185.78 4040.33L4092.35 4202.57C4087.75 4210.59 4091.05 4215.94 4100.31 4215.94H4150.89H4161.06C4167.02 4215.94 4174.18 4219.86 4177.65 4224.87C4177.92 4225.21 4178.16 4225.56 4178.4 4225.92C4178.51 4226.1 4178.62 4226.27 4178.73 4226.46L4219.02 4296.3C4222.15 4301.76 4222.15 4310.68 4219.02 4316.14L4155.37 4426.7C4152.25 4432.16 4154.81 4436.65 4161.11 4436.65H4191.86C4191.99 4436.65 4192.15 4436.66 4192.32 4436.68C4192.51 4436.69 4192.7 4436.71 4192.88 4436.71H4201.86C4206.12 4436.71 4211.29 4439.72 4213.45 4443.42L4215.16 4446.38C4215.19 4446.44 4215.23 4446.49 4215.26 4446.53C4215.28 4446.56 4215.31 4446.58 4215.33 4446.6L4226.92 4466.68L4256.64 4518.03C4258.74 4521.73 4262.27 4521.73 4264.37 4518.03L4276.87 4496.36C4278.97 4492.67 4284.2 4489.65 4288.46 4489.65H4320.46C4324.72 4489.65 4329.95 4492.67 4332.05 4496.36ZM4762.23 4131.2L4775.47 4154.09C4777.23 4157.1 4777.23 4162.1 4775.53 4165.16L4762.29 4188.05C4760.53 4191.12 4756.21 4193.62 4752.68 4193.62L4700.12 4193.67C4696.99 4193.67 4695.51 4195.6 4696.42 4198.16L4698.98 4202.76L4703.7 4211L4714.95 4230.48L4716.48 4233.14C4718.24 4236.21 4718.24 4241.15 4716.48 4244.22L4714.89 4247L4695.46 4280.62L4693.98 4283.23C4692.22 4286.3 4687.9 4288.8 4684.37 4288.8H4681.7H4642.43H4639.36C4635.84 4288.8 4631.52 4286.3 4629.76 4283.23L4628.4 4280.91L4589.18 4213.66C4586.57 4209.18 4582.31 4209.18 4579.69 4213.66L4550.6 4263.87C4547.98 4268.35 4541.62 4272.05 4536.39 4272.05H4534.8C4533.72 4272.22 4532.64 4272.33 4531.62 4272.33H4474.22C4473.2 4272.33 4472.12 4272.22 4471.04 4272.05H4469.79C4464.56 4272.05 4458.19 4268.35 4455.58 4263.87L4454.5 4262.05C4454.1 4261.48 4453.7 4260.92 4453.36 4260.35L4396.13 4161.64C4392.33 4155.06 4386.08 4155.06 4382.27 4161.64L4339.59 4235.36C4335.78 4242 4326.4 4247.4 4318.73 4247.4H4220.99C4213.31 4247.4 4203.94 4241.95 4200.13 4235.36L4151.26 4150.74C4147.45 4144.09 4147.45 4133.3 4151.26 4126.66L4200.13 4042.04C4203.94 4035.4 4213.37 4030 4220.99 4030H4318.73C4326.4 4030 4335.78 4035.45 4339.59 4042.04L4417.05 4175.78C4420.23 4181.24 4425 4182.2 4428.75 4178.62L4455.58 4132.17C4458.19 4127.68 4464.56 4123.99 4469.79 4123.99H4536.39C4541.62 4123.99 4547.98 4127.68 4550.6 4132.17L4603.33 4223.32C4605.95 4227.81 4610.21 4227.81 4612.83 4223.32L4628.11 4196.85C4628.19 4196.75 4628.26 4196.64 4628.33 4196.53L4628.34 4196.51C4628.41 4196.4 4628.48 4196.29 4628.57 4196.17L4629.7 4194.24C4631.47 4191.18 4635.78 4188.68 4639.31 4188.68H4641.92H4642.32H4660.28L4710.52 4188.62C4714.04 4188.62 4715.46 4186.12 4713.7 4183.05L4703.35 4165.16C4701.59 4162.1 4701.59 4157.16 4703.35 4154.09L4716.6 4131.2C4718.36 4128.14 4722.68 4125.64 4726.2 4125.64H4752.63C4756.15 4125.64 4760.47 4128.14 4762.23 4131.2Z" fill="black"/>
</svg>

<svg viewBox="0 0 8000 8000" fill="none"
  xmlns="http://www.w3.org/2000/svg">
  <path fill-rule="evenodd" clip-rule="evenodd" d="M8000 0H0v8000h8000V0ZM4380 3788.5c-12.6 0-17.8 9-11.5 20l37.2 64.4a44 44 0 0 1 0 40l-47.6 82.3c-6.3 11-21.8 20-34.5 20h-95.1c-12.7 0-28.3-9-34.6-20l-47.5-82.4a44 44 0 0 1 0-39.9l47.5-82.4c6.4-11 22-20 34.6-20l189.3-.2c12.6 0 17.8-9 11.5-20l-70.5-122.4c-6.4-11-6.4-28.9 0-39.9l81-140.4a44 44 0 0 1 34.5-20h162.1c12.7 0 28.3 9 34.6 20l81 140.4c6.4 11 6.4 29 0 39.9l-81 140.4c-6.3 11-21.9 20-34.6 20l-256.4.2Zm-48 707.9 16 27.7a14 14 0 0 1-.3 13.5l-16 27.7a14.8 14.8 0 0 1-11.6 6.7h-32c-4.2 0-9.5-3-11.6-6.7l-31.9-55.1c-2-3.7-5.5-3.7-7.7 0l-23.7 41.1a14.8 14.8 0 0 1-11.6 6.7H4147c-4.3 0-9.5-3-11.6-6.7l-27.2-47.2a15 15 0 0 1 0-13.4l5.6-9.8.3-.6v-.2l42.5-74.1c3.1-5.5.6-10-5.8-10h-70.2a22 22 0 0 1-17.2-10l-4.8-8.5-.4-.6-2.3-4-39.2-68.5-17.7-29.4c-3.1-5.4-7.9-5.3-11 .1v.1l-20.7 35.9a15 15 0 0 1-11.7 6.8h-55c-4.2 0-9.5-3.1-11.7-6.8l-43.5-75.3c-2.1-3.7-5.6-3.7-7.8 0l-12.6 21.9-.3.6-1 1.6a10 10 0 0 1-8 4.6h-58.7c-2.9 0-4 2-2.6 4.6l8.5 14.7a10 10 0 0 1 0 9.2l-10.9 18.9a10 10 0 0 1-7.9 4.5h-43.7c-3 0-4.1 2-2.7 4.6l5 8.7 8.7 15 2.6 4.4a10 10 0 0 1 0 9.2l-18.7 32.3c-1.5 2.5-5 4.6-8 4.6h-37.2c-2.9 0-6.4-2.1-8-4.6l-4-7-.1-.3v-.1l-29.3-50.3c-2.2-3.7-5.7-3.7-7.9 0l-24 41.7a15.1 15.1 0 0 1-11.8 6.7H3510a15 15 0 0 1-11.8-6.8l-8.4-14.5-40.7-70.1c-3.2-5.5-7.5-5-10.7.4l-6.4 10.7-29 50.2a22 22 0 0 1-17.2 10H3315c-6.3 0-8.9 4.5-5.7 10l25.1 44 39.7 68.8c2.1 3.7 5.7 3.7 7.8 0l12.6-22a15 15 0 0 1 11.7-6.7h32.3c4.3 0 9.6 3 11.7 6.8l16.1 28a15 15 0 0 1 0 13.5l-16 28a15 15 0 0 1-11.8 6.7h-32.3c-4.2 0-9.5-3-11.7-6.7l-32.1-55.6c-2.2-3.7-5.7-3.7-7.8 0l-24 41.5a15 15 0 0 1-11.7 6.8h-55a15 15 0 0 1-11.7-6.8l-27.5-47.6a15 15 0 0 1 0-13.6l27.5-47.6a15 15 0 0 1 11.7-6.8h41.6c6.4 0 8.6-4.4 5.4-9.8l-28-48.8-36.6-62.4a22 22 0 0 1 0-20l40.5-70c3.2-5.5 11-10 17.3-10h80.8c6.3 0 14 4.5 17.2 10l64.1 110.8c3.2 5.5 8 5.3 11.2-.2l20.7-36c2.2-3.7 7.5-6.7 11.8-6.7h55.1c4.3 0 9.6 3 11.8 6.7l43.6 75.6c2.2 3.7 5.7 3.7 7.8 0l12.7-22a2.8 2.8 0 0 1 .2-.2l1.1-2c1.5-2.5 5-4.6 8-4.6H3709.2c3 0 4.2-2.1 2.7-4.6l-8.6-14.9a10 10 0 0 1 0-9.1l11-19c1.4-2.5 5-4.6 7.9-4.6l21.8.3 21.8-.1c3 0 4-2.2 2.5-4.7l-16-28a10 10 0 0 1 0-9.1l18.6-32.2a10 10 0 0 1 7.9-4.5h37.1c3 0 6.5 2 8 4.5l3.8 6.7 29.6 50.8c2 3.7 5.6 3.7 7.7 0l24-41.5a15 15 0 0 1 11.7-6.8h55c4.2 0 9.5 3 11.7 6.8l26 45 23 39.4c3.2 5.5 8.4 5.5 11.5 0l41.2-70.1 25.5-44.6c4.6-8 .9-14.5-8.4-14.5l-103-.1c-9.3 0-20.7-6.6-25.3-14.6l-59.2-102.5c-4.6-8-4.6-21.2 0-29.2l59.2-102.5c4.7-8 16-14.6 25.2-14.6h118.3c9.3 0 20.7 6.5 25.3 14.6l59 102.6c4.7 8 4.7 21.1 0 29.1l-93.3 162.3c-4.7 8-1.3 13.3 8 13.3h60.7a22.2 22.2 0 0 1 17.3 10l.3.6 40.3 69.8a22.1 22.1 0 0 1 0 19.8l-63.6 110.6c-3.1 5.5-.6 10 5.7 10h40.8c4.2 0 9.4 3 11.6 6.7l1.7 3v.1l.1.1 11.6 20 29.7 51.4c2.1 3.7 5.7 3.7 7.8 0l12.5-21.6c2-3.7 7.3-6.8 11.6-6.8h32c4.2 0 9.4 3 11.6 6.8Zm430.2-365.2 13.3 22.9c1.7 3 1.7 8 0 11l-13.2 23c-1.8 3-6 5.5-9.6 5.5H4700c-3.1 0-4.6 2-3.7 4.6l2.6 4.6 4.7 8.2 11.3 19.5 1.5 2.6c1.7 3.1 1.7 8 0 11.1l-1.6 2.8-19.4 33.6-1.5 2.6c-1.8 3.1-6.1 5.6-9.6 5.6h-45c-3.6 0-7.9-2.5-9.6-5.6l-1.4-2.3-39.2-67.2c-2.6-4.5-6.9-4.5-9.5 0l-29.1 50.2c-2.6 4.5-9 8.2-14.2 8.2h-1.6l-3.2.2h-57.4c-1 0-2 0-3.2-.3h-1.2c-5.2 0-11.6-3.6-14.2-8.1l-1.1-1.8-1.1-1.8-57.3-98.7c-3.8-6.5-10-6.5-13.8 0l-42.7 73.8a26.6 26.6 0 0 1-20.9 12H4221c-7.7 0-17-5.4-20.9-12l-48.8-84.7a26.8 26.8 0 0 1 0-24l48.8-84.7c3.8-6.6 13.3-12 20.9-12h97.7c7.7 0 17 5.4 20.9 12l77.4 133.8c3.2 5.4 8 6.4 11.8 2.8l26.8-46.4c2.6-4.5 9-8.2 14.2-8.2h66.6c5.2 0 11.6 3.7 14.2 8.2l52.7 91.1c2.6 4.5 7 4.5 9.5 0l15.3-26.4.2-.4.3-.3 1.1-2c1.8-3 6-5.5 9.6-5.5h71.2c3.5 0 5-2.6 3.2-5.6l-10.3-18c-1.8-3-1.8-8 0-11l13.2-22.9c1.8-3 6-5.6 9.6-5.6h26.4c3.5 0 7.9 2.5 9.6 5.6Z" fill="currentColor"/>
</svg>
